Educa/src/img/icons/knowledge.svg

<svg width="30" height="30" viewBox="0 0 30 30" fill="none" xmlns="http://www.w3.org/2000/svg">
<g id="knowledge (1) 1" clip-path="url(#clip0_103_467)">
<g id="Group">
<path id="Vector" d="M12.3632 8.21225V11.8485L12.6207 12.1059C12.703 12.1881 14.68 14.1211 18.5156 14.1211C22.3512 14.1211 24.3282 12.1881 24.4105 12.1059L24.6679 11.8484V8.21219L26.4257 7.50907V12.3633H28.1836V6.80594L29.6712 6.21092L18.5156 1.74866L7.35999 6.21092L12.3632 8.21225ZM22.9101 11.0747C22.3506 11.4926 20.8985 12.3633 18.5156 12.3633C16.1326 12.3633 14.6806 11.4926 14.1211 11.0747V8.91532L18.5156 10.6731L22.9101 8.91532V11.0747ZM24.9381 6.21092L18.5156 8.77991L12.0931 6.21092L18.5156 3.64194L24.9381 6.21092Z" fill="white"/>
<path id="Vector_2" d="M6.77377 7.65275L5.53082 6.4098L4.40629 7.53434C4.60129 4.31625 7.28067 1.75781 10.5469 1.75781V0C6.30438 0 2.83176 3.35725 2.64508 7.55449L1.50034 6.4098L0.257446 7.65275L3.51561 10.9109L6.77377 7.65275Z" fill="white"/>
<path id="Vector_3" d="M29.7425 20.5895L26.4843 17.3313L23.2262 20.5895L24.4691 21.8324L25.6054 20.6961V22.0899C25.6054 25.4823 22.8455 28.2422 19.4531 28.2422V30C23.8147 30 27.3632 26.4515 27.3632 22.0899V20.6961L28.4996 21.8325L29.7425 20.5895Z" fill="white"/>
<path id="Vector_4" d="M21.1523 24.668V19.1107L22.6399 18.5157L11.4843 14.0534L0.328735 18.5157L5.332 20.517V24.1532L5.58946 24.4107C5.67172 24.4929 7.64874 26.4258 11.4843 26.4258C15.3199 26.4258 17.297 24.4929 17.3792 24.4106L17.6367 24.1532V20.5169L19.3945 19.8138V24.668H21.1523ZM15.8789 23.3795C15.3194 23.7973 13.8673 24.668 11.4843 24.668C9.10139 24.668 7.64932 23.7973 7.08981 23.3795V21.2201L11.4843 22.9779L15.8789 21.2201V23.3795ZM11.4843 21.0847L5.06182 18.5157L11.4843 15.9467L17.9069 18.5157L11.4843 21.0847Z" fill="white"/>
</g>
</g>
<defs>
<clipPath id="clip0_103_467">
<rect width="30" height="30" fill="white"/>
</clipPath>
</defs>
</svg>

<svg xmlns="http://www.w3.org/2000/svg" width="30" height="30" fill="none" xmlns:v="https://vecta.io/nano"><g clip-path="url(#A)" fill="#fff"><path d="M12.363 8.212v3.636l.257.257c.082.082 2.059 2.015 5.895 2.015s5.813-1.933 5.895-2.015l.257-.258V8.212l1.758-.703v4.854h1.758V6.806l1.488-.595-11.156-4.462L7.36 6.211l5.003 2.001zm10.547 2.862c-.559.418-2.012 1.289-4.395 1.289s-3.835-.871-4.394-1.289V8.915l4.394 1.758 4.395-1.758v2.159zm2.028-4.864l-6.422 2.57-6.422-2.569 6.422-2.569 6.422 2.569zM6.774 7.653L5.531 6.41 4.406 7.534a6.16 6.16 0 0 1 6.141-5.777V0a7.92 7.92 0 0 0-7.902 7.554L1.5 6.41.257 7.653l3.258 3.258 3.258-3.258zM29.743 20.59l-3.258-3.258-3.258 3.258 1.243 1.243 1.136-1.136v1.394a6.16 6.16 0 0 1-6.152 6.152V30a7.92 7.92 0 0 0 7.91-7.91v-1.394l1.136 1.136 1.243-1.243zm-8.591 4.078v-5.557l1.488-.595-11.156-4.462L.329 18.516l5.003 2.001v3.636l.257.258c.082.082 2.059 2.015 5.895 2.015s5.813-1.933 5.895-2.015l.258-.257v-3.636l1.758-.703v4.854h1.758zm-5.273-1.288c-.559.418-2.012 1.288-4.395 1.288s-3.835-.871-4.394-1.288v-2.16l4.394 1.758 4.395-1.758v2.159zm-4.395-2.295l-6.422-2.569 6.422-2.569 6.423 2.569-6.423 2.569z"/></g><defs><clipPath id="A"><path fill="#fff" d="M0 0h30v30H0z"/></clipPath></defs></svg>
